public/piece/pixel/wN.svg

<svg xmlns="http://www.w3.org/2000/svg" shape-rendering="crispEdges" viewBox="0 -0.5 16 16"><path stroke="#000" d="M4 1h4M4 2h1m3 0h3M5 3h1m5 0h1M4 4h1m7 0h1M3 5h1m8 0h1M2 6h1m5 0h1m3 0h1M2 7h1m2 0h3m4 0h1M3 8h2m2 0h1m4 0h1M6 9h1m5 0h1m-8 1h1m5 0h1m-8 1h1m6 0h1m-8 1h8m-9 1h1m8 0h1M3 14h10"/><path stroke="#fdfdfd" d="M5 2h1m-1 9h1m-2 2h1"/><path stroke="#e1e1e1" d="M6 2h1M6 3h1M5 4h1M4 5h1M3 6h1M3 7h1m4 0h1M8 8h1M7 9h1m-2 1h1m-1 1h1m-2 2h1"/><path stroke="#c1c1c1" d="M7 2h1M7 3h3M7 4h4M5 5h3m1 0h2M4 6h3m2 0h2M4 7h1m4 0h2M9 8h2M8 9h3m-4 1h3m-3 1h2m-3 2h3"/><path stroke="#a7a7a7" d="M10 3h1m0 1h1M8 5h1m2 0h1M7 6h1m3 0h1m-1 1h1m-1 1h1m-1 1h1m-2 1h1m-2 1h2m-2 2h3"/><path stroke="#494949" d="M6 4h1"/></svg>

<svg xmlns="http://www.w3.org/2000/svg" viewBox="0 -0.5 16 16" shape-rendering="crispEdges">
<metadata>Made with Pixels to Svg https://codepen.io/shshaw/pen/XbxvNj</metadata>
<path stroke="#000000" d="M4 1h4M4 2h1M8 2h3M5 3h1M11 3h1M4 4h1M12 4h1M3 5h1M12 5h1M2 6h1M8 6h1M12 6h1M2 7h1M5 7h3M12 7h1M3 8h2M7 8h1M12 8h1M6 9h1M12 9h1M5 10h1M11 10h1M4 11h1M11 11h1M4 12h8M3 13h1M12 13h1M3 14h10" />
<path stroke="#fdfdfd" d="M5 2h1M5 11h1M4 13h1" />
<path stroke="#e1e1e1" d="M6 2h1M6 3h1M5 4h1M4 5h1M3 6h1M3 7h1M8 7h1M8 8h1M7 9h1M6 10h1M6 11h1M5 13h1" />
<path stroke="#c1c1c1" d="M7 2h1M7 3h3M7 4h4M5 5h3M9 5h2M4 6h3M9 6h2M4 7h1M9 7h2M9 8h2M8 9h3M7 10h3M7 11h2M6 13h3" />
<path stroke="#a7a7a7" d="M10 3h1M11 4h1M8 5h1M11 5h1M7 6h1M11 6h1M11 7h1M11 8h1M11 9h1M10 10h1M9 11h2M9 13h3" />
<path stroke="#494949" d="M6 4h1" />
</svg>
